X:231
T:Serra ur Matthias Silvius Svenonis notbok
T:(SmM I:231)
R:Polska
O:Kalmar, Småland
S:Matthias Silvius Svenonis
B:Småländsk Musiktradition
N:1721
M:3/4
L:1/8
K:Gm
B2 A2 G2|F>E D4|F2 GF ED|C>B, B,4:| |:D2 =E2 ^F2|G2A2B2|AG ^F3 G|G2 G4:|

